X: 19260
T: Itsbynne
R: reel
M: 4/4
K: Gmixolydian
{c}dag2f2dB|A2dAB2GD|F2AFd2cA|F2GFD2z2|
{c}dag2f2dB|A2dAB2GD|F2AFd2cA|F2AFG2z2:|
d2(3g^fg b2(3g^fg|a2(3aga facf|d2(3g^fg b2ga|(3aga fg (3dcA (3GAc|
d2(3g^fg b2(3g^fg|a2(3aga facf|d2(3g^fg b2ga|(3aga fg (3dcA G2:|

